en/_assets/wiki/svg/link.svg

<svg xmlns="http://www.w3.org/2000/svg" xmlns:xlink="http://www.w3.org/1999/xlink" width="18" height="14" class="yc-icon" fill="currentColor" stroke="none" aria-hidden="true"><svg viewBox="0 0 18 14" xmlns="http://www.w3.org/2000/svg"><path d="M5.16602 3.67188C4.9375 3.41797 4.55664 3.41797 4.30273 3.64648L1.05273 6.69336C0.925781 6.79492 0.875 6.97266 0.875 7.125C0.875 7.30273 0.925781 7.45508 1.05273 7.58203L4.30273 10.6289C4.42969 10.7305 4.58203 10.7812 4.70898 10.7812C4.86133 10.7812 5.01367 10.7305 5.14062 10.6035C5.36914 10.3496 5.36914 9.96875 5.11523 9.74023L2.37305 7.125L5.14062 4.53516C5.39453 4.30664 5.39453 3.92578 5.16602 3.67188ZM10.7773 0.650391C10.4473 0.574219 10.1172 0.751953 10.0156 1.08203L6.76562 12.8633C6.68945 13.1934 6.86719 13.5234 7.19727 13.625C7.24805 13.625 7.29883 13.625 7.375 13.625C7.62891 13.625 7.88281 13.4727 7.95898 13.1934L11.209 1.41211C11.2852 1.08203 11.1074 0.751953 10.7773 0.650391ZM16.9219 6.69336L13.6719 3.64648C13.418 3.41797 13.0371 3.41797 12.8086 3.67188C12.5801 3.92578 12.5801 4.30664 12.834 4.53516L15.6016 7.125L12.834 9.74023C12.5801 9.96875 12.5801 10.3496 12.8086 10.6035C12.9355 10.7305 13.0879 10.7812 13.2656 10.7812C13.3926 10.7812 13.5449 10.7305 13.6719 10.6289L16.9219 7.58203C17.0488 7.45508 17.125 7.30273 17.125 7.125C17.125 6.97266 17.0488 6.79492 16.9219 6.69336Z"></path></svg></svg>

<svg xmlns="http://www.w3.org/2000/svg" width="18" height="14" fill="currentColor" aria-hidden="true" class="yc-icon"><svg xmlns="http://www.w3.org/2000/svg" viewBox="0 0 18 14"><path d="M5.166 3.672c-.229-.254-.61-.254-.863-.026l-3.25 3.047c-.127.102-.178.28-.178.432 0 .178.05.33.178.457l3.25 3.047c.127.101.279.152.406.152.152 0 .305-.05.432-.178.228-.253.228-.634-.026-.863L2.373 7.125l2.768-2.59c.254-.228.254-.61.025-.863ZM10.777.65a.636.636 0 0 0-.761.432l-3.25 11.781c-.077.33.101.66.431.762h.178a.594.594 0 0 0 .584-.432l3.25-11.78a.636.636 0 0 0-.432-.763Zm6.145 6.043-3.25-3.047c-.254-.228-.635-.228-.863.026-.229.254-.229.635.025.863l2.768 2.59-2.768 2.615c-.254.229-.254.61-.025.864.127.127.279.177.457.177.127 0 .279-.05.406-.152l3.25-3.047a.636.636 0 0 0 .203-.457.581.581 0 0 0-.203-.432Z"/></svg></svg>
